X: 40
M: 2/4
L: 1/8
K: A
V: 1
|:\
c>Bc>d | efed | cBAG | A2E2 |\
c>Bc>d | efed | cBAG | A2 A2 :|\
ed/c/ de | Tf2 ea | ed/c/ de | Tf2 ea |
gfed | cd/e/ fe | dcBA | B4 |\
c>Bc>d | efed | cBAG | A2E2 |\
c>Bc>d | efed | cBAG | A2 A2 |]
K: Am
"Mineur"\
cAAc | BEEe | dcBd | cB/c/ AE |\
cAAc | BEEe | dcBc | A4 |]\
ec/d/ ec | dggG | cedc | B2G2 |
gf/e/ dc | fz ez | dcdB | c2 C2 |]\
ecce | dB Bz | dBBd | cA Az |\
fg/f/ ez | de/d/ cz | Bc/d/ E^G | A2 A,2 |]
V: 2 clef=bass middle=d
K: Am
"Mineur"\
a2 c'a | ^g2 e2 | ^f2 ^g2 | a2 A2 | a2 c'a | ^g2 ac | d2 e2 | A4 |]
c2 c'2 | b2 B2 | A2 ^f2 | g2 G2 | e2 a2 | d2 c2 | g2 G2 | c4 |]
c2 c'2 | b2 ^g2 | e2 ^g2 | a2 A2 | d2 c2 | B2 A2 | d2 e2 | A4 |]


